img/icon/android.svg

<svg width="20" height="24" viewBox="0 0 20 24" fill="none" xmlns="http://www.w3.org/2000/svg">
<path d="M1.45782 7.64556H1.39775C0.62779 7.64556 0 8.27534 0 9.04331V15.1289C0 15.8999 0.62779 16.5276 1.39775 16.5276H1.45884C2.2288 16.5276 2.85659 15.8978 2.85659 15.1289V9.04327C2.85557 8.27534 2.22681 7.64556 1.45782 7.64556Z" fill="#162F71"/>
<path d="M3.52541 17.4778C3.52541 18.1847 4.10312 18.7604 4.81 18.7604H6.18274V22.0475C6.18274 22.8195 6.81253 23.4473 7.58049 23.4473H7.64056C8.41154 23.4473 9.04031 22.8185 9.04031 22.0475V18.7604H10.9587V22.0475C10.9587 22.8195 11.5905 23.4473 12.3585 23.4473H12.4176C13.1885 23.4473 13.8163 22.8185 13.8163 22.0475V18.7604H15.19C15.8959 18.7604 16.4736 18.1847 16.4736 17.4778V7.86882H3.52541V17.4778Z" fill="#162F71"/>
<path d="M13.2245 2.04155L14.3149 0.358466C14.385 0.252311 14.3539 0.107165 14.2468 0.0380499C14.1407 -0.0320397 13.9955 -0.0029827 13.9264 0.106144L12.796 1.84734C11.948 1.49991 11.0008 1.30468 10.0005 1.30468C8.99923 1.30468 8.05404 1.49991 7.204 1.84734L6.07561 0.106144C6.00654 -0.0029827 5.86033 -0.0320397 5.7532 0.0380499C5.64607 0.107118 5.61501 0.252311 5.6851 0.358466L6.77646 2.04155C4.80898 3.00576 3.48234 4.82304 3.48234 6.90762C3.48234 7.03578 3.49037 7.16194 3.50137 7.28708H16.5006C16.5116 7.16194 16.5186 7.03578 16.5186 6.90762C16.5186 4.82304 15.191 3.00576 13.2245 2.04155ZM6.98673 5.05531C6.64129 5.05531 6.36093 4.77694 6.36093 4.43053C6.36093 4.08412 6.64129 3.80674 6.98673 3.80674C7.33416 3.80674 7.61252 4.08408 7.61252 4.43053C7.61252 4.77699 7.33216 5.05531 6.98673 5.05531ZM13.0133 5.05531C12.6678 5.05531 12.3875 4.77694 12.3875 4.43053C12.3875 4.08412 12.6678 3.80674 13.0133 3.80674C13.3597 3.80674 13.638 4.08408 13.638 4.43053C13.638 4.77694 13.3597 5.05531 13.0133 5.05531Z" fill="#162F71"/>
<path d="M18.6012 7.64556H18.5432C17.7732 7.64556 17.1434 8.27534 17.1434 9.04331V15.1289C17.1434 15.8999 17.7742 16.5276 18.5432 16.5276H18.6022C19.3732 16.5276 20 15.8978 20 15.1289V9.04327C20 8.27534 19.3712 7.64556 18.6012 7.64556Z" fill="#162F71"/>
</svg>

<svg width="20" height="24" fill="none" xmlns="http://www.w3.org/2000/svg"><path d="M1.458 7.646h-.06C.628 7.646 0 8.276 0 9.043v6.086a1.4 1.4 0 0 0 1.398 1.399h.06c.77 0 1.399-.63 1.399-1.4V9.044a1.404 1.404 0 0 0-1.4-1.397zm2.067 9.832c0 .707.578 1.282 1.285 1.282h1.373v3.287c0 .773.63 1.4 1.397 1.4h.06c.772 0 1.4-.628 1.4-1.4V18.76h1.919v3.287c0 .773.632 1.4 1.4 1.4h.059c.77 0 1.398-.628 1.398-1.4V18.76h1.374c.706 0 1.284-.575 1.284-1.282v-9.61H3.525v9.61zm9.7-15.436l1.09-1.684a.232.232 0 1 0-.389-.252l-1.13 1.741a7.37 7.37 0 0 0-2.795-.542 7.38 7.38 0 0 0-2.797.542L6.076.107a.232.232 0 0 0-.323-.069.231.231 0 0 0-.068.32l1.091 1.684c-1.967.964-3.294 2.781-3.294 4.866 0 .128.008.254.02.38H16.5c.01-.126.018-.252.018-.38 0-2.085-1.328-3.902-3.294-4.866zM6.987 5.055a.625.625 0 1 1 0-1.248.625.625 0 0 1 0 1.249zm6.026 0a.625.625 0 1 1-.002-1.249.625.625 0 0 1 .002 1.25zm5.588 2.591h-.058c-.77 0-1.4.63-1.4 1.397v6.086c0 .77.631 1.399 1.4 1.399h.06c.77 0 1.397-.63 1.397-1.4V9.044c0-.768-.629-1.397-1.399-1.397z" fill="#162F71"/></svg>
